X:405
T: "Richmut und Adocht"
N: Z1085
O: Europa, Mitteleuropa, Deutschland, Niederrhein
R: Romanze, Ballade
M: 3/8
L: 1/16
K: G
D2 | G4G2 | A2A2d2 | c4_B2 | A4
_B2 | G2A2_B2 | A2G2F2 | G4A2 | D4
G2 | A4d2 | c2_B2A2 | G2A2G2 | =F4
D2 | G2A2_Bc | d2G2_BA | G2G2F2 | G4

